X:1
T: Whistling On the Turnpike
C: J-16
C: Robin Cooper 1980
M: 6/8
Z:
R: jig
K: G
"G"B2 d G2 d| "C"ege "G"d2 c| BdB "Em"GAB| "Am"cBc "D7"A3|
"G"BdB G2 d| "C"ege "G"d2 c| BdB "D7"ABA|1 "G"G3 z3 :|2 "G"G3 F2 G|] \K:D\
|:\
"D"A2 d d2 e| faf d3| "A7"ege cec| "D"dfd A3|
"D"A2 d d2 e| faf d3| "A7"ege cec|1 "D"e3 z3:|2 "D"d3 "D7"=c3|]
%
